logos/ubuntu.svg

<?xml version="1.0" encoding="UTF-8" standalone="no"?>
<svg width="256px" height="256px" viewBox="0 0 256 256" version="1.1" xmlns="http://www.w3.org/2000/svg" xmlns:xlink="http://www.w3.org/1999/xlink" preserveAspectRatio="xMidYMid">
	<g>
		<path d="M255.637396,127.683191 C255.637396,198.196551 198.47207,255.363378 127.954205,255.363378 C57.4348387,255.363378 0.27026393,198.196551 0.27026393,127.683191 C0.27026393,57.1653255 57.4355894,0 127.954205,0 C198.472821,0 255.637396,57.1653255 255.637396,127.683191 L255.637396,127.683191 Z" fill="#DD4814"></path>
		<path d="M41.1334194,110.63254 C31.7139707,110.63254 24.0827683,118.264493 24.0827683,127.683191 C24.0827683,137.097384 31.7139707,144.728587 41.1334194,144.728587 C50.5476129,144.728587 58.1788152,137.097384 58.1788152,127.683191 C58.1788152,118.264493 50.5476129,110.63254 41.1334194,110.63254 L41.1334194,110.63254 Z M162.848282,188.111202 C154.694569,192.820551 151.898839,203.240727 156.608938,211.389935 C161.313032,219.543648 171.733208,222.338628 179.886921,217.629279 C188.039883,212.925185 190.835613,202.505009 186.126264,194.350545 C181.42217,186.202088 170.995988,183.407109 162.848282,188.111202 L162.848282,188.111202 Z M78.1618299,127.683191 C78.1618299,110.836739 86.5295015,95.9534545 99.3332551,86.9409032 L86.8703343,66.0667683 C71.9555191,76.0365044 60.8581818,91.271132 56.2464282,109.113806 C61.6276833,113.504845 65.0720469,120.189372 65.0720469,127.68244 C65.0720469,135.171003 61.6276833,141.855531 56.2464282,146.246569 C60.852176,164.094499 71.9495132,179.329877 86.8703343,189.299613 L99.3332551,168.420223 C86.5295015,159.412927 78.1618299,144.530393 78.1618299,127.683191 L78.1618299,127.683191 Z M127.954205,77.8855601 C153.967109,77.8855601 175.30895,97.8302874 177.549138,123.265877 L201.839859,122.907777 C200.644692,104.129689 192.441431,87.2719765 179.836622,74.875871 C173.354792,77.3247625 165.86773,76.9501466 159.396411,73.2197537 C152.91383,69.4788504 148.849361,63.1681877 147.738276,56.3177478 C141.438123,54.5790499 134.807648,53.6271202 127.952704,53.6271202 C116.168446,53.6271202 105.026815,56.3950733 95.1344047,61.2913548 L106.979472,82.5175836 C113.351695,79.5521877 120.460387,77.8855601 127.954205,77.8855601 L127.954205,77.8855601 Z M127.954205,177.475566 C120.460387,177.475566 113.351695,175.808188 106.980223,172.843543 L95.1351554,194.069021 C105.027566,198.971308 116.169196,201.740012 127.954205,201.740012 C134.80915,201.740012 141.439625,200.787331 147.739026,199.043378 C148.850111,192.192938 152.916082,185.888282 159.397161,182.140622 C165.872985,178.404223 173.355543,178.036364 179.837372,180.485255 C192.442182,168.08915 200.645443,151.231437 201.84061,132.453349 L177.543883,132.095249 C175.30895,157.537595 153.967859,177.475566 127.954205,177.475566 L127.954205,177.475566 Z M162.842276,67.2446686 C170.995988,71.9532669 181.416915,69.1642933 186.121009,61.0105806 C190.830358,52.856868 188.041384,42.4359413 179.886921,37.7258416 C171.733208,33.0217478 161.313032,35.8167273 156.602182,43.9704399 C151.898839,52.1196481 154.693818,62.5405748 162.842276,67.2446686 L162.842276,67.2446686 Z" fill="#FFFFFF"></path>
	</g>
</svg>

<svg width="256" height="256" xmlns="http://www.w3.org/2000/svg" preserveAspectRatio="xMidYMid">
	<path d="M255.637 127.683c0 70.514-57.165 127.68-127.683 127.68C57.434 255.363.27 198.197.27 127.683.27 57.165 57.436 0 127.954 0c70.519 0 127.683 57.165 127.683 127.683Z" fill="#DD4814"/>
	<path d="M41.133 110.633c-9.419 0-17.05 7.631-17.05 17.05 0 9.414 7.631 17.046 17.05 17.046 9.415 0 17.046-7.632 17.046-17.046 0-9.419-7.631-17.05-17.046-17.05Zm121.715 77.478c-8.153 4.71-10.95 15.13-6.24 23.279 4.705 8.154 15.125 10.949 23.279 6.24 8.153-4.705 10.949-15.125 6.24-23.28-4.705-8.148-15.131-10.943-23.279-6.239Zm-84.686-60.428c0-16.846 8.368-31.73 21.171-40.742L86.87 66.067c-14.914 9.97-26.012 25.204-30.624 43.047 5.382 4.39 8.826 11.075 8.826 18.568 0 7.489-3.444 14.174-8.826 18.565C60.852 164.094 71.95 179.33 86.87 189.3l12.463-20.88c-12.803-9.007-21.171-23.89-21.171-40.737Zm49.792-49.797c26.013 0 47.355 19.944 49.595 45.38l24.29-.358c-1.194-18.778-9.398-35.636-22.002-48.032-6.482 2.449-13.97 2.074-20.44-1.656-6.483-3.741-10.548-10.052-11.659-16.902a74.26 74.26 0 0 0-19.785-2.69 73.787 73.787 0 0 0-32.819 7.663l11.845 21.227a49.596 49.596 0 0 1 20.975-4.632Zm0 99.59a49.601 49.601 0 0 1-20.974-4.632l-11.845 21.225a73.712 73.712 0 0 0 32.82 7.671 74.04 74.04 0 0 0 19.784-2.697c1.111-6.85 5.177-13.155 11.658-16.902 6.476-3.737 13.959-4.105 20.44-1.656 12.605-12.396 20.808-29.254 22.004-48.032l-24.297-.358c-2.235 25.443-23.576 45.38-49.59 45.38Zm34.888-110.231c8.154 4.708 18.575 1.92 23.279-6.234 4.71-8.154 1.92-18.575-6.234-23.285-8.154-4.704-18.574-1.91-23.285 6.244-4.703 8.15-1.908 18.57 6.24 23.275Z" fill="#FFF"/>
</svg>
